X:103
T:Saint Anne's Reel
C:Old-Time
M:4/4
K:D
L:1/8
|: "D" f2 (fg) fedB | ABAG FGAd | "G" B2 G2 G2 (FG) | "D" ABAG FGAd |
f2 (fg) fedB | ABAG FGAd | "G" BGBd "A" cdec |1 "D" dBAF D2 (de) :|2 "D" dBAF D2 (ag) ||
"D" fafd Adfg | a2 g2 "G" g2 (gf) | "A" edcB Aceg | "G" b2 a2 "D" a2 (ag) |
"D" fafd Adfg | a2 g2 "G" g2 (gf) | "A" edcB Aceg |1 "D" f2 d2 d2 (ag) :|2 "D" f2 d2 d2 |]

